public/img/react.svg

<svg width="87" height="87" viewBox="0 0 87 87" fill="none" xmlns="http://www.w3.org/2000/svg">
<path d="M43.5 47.2337C47.0736 47.2337 49.9706 44.3367 49.9706 40.7631C49.9706 37.1895 47.0736 34.2925 43.5 34.2925C39.9264 34.2925 37.0294 37.1895 37.0294 40.7631C37.0294 44.3367 39.9264 47.2337 43.5 47.2337Z" fill="#EEEEEE"/>
<path d="M25.3822 53.6284L23.9504 53.2623C13.3146 50.5761 7.21375 46.0086 7.21375 40.7488C7.21375 35.4853 13.3182 30.9214 23.9504 28.2353L25.3822 27.8728L25.7846 29.2901C26.8596 33.001 28.2369 36.6176 29.9026 40.1035L30.2107 40.7488L29.9026 41.394C28.2351 44.8849 26.854 48.5026 25.7846 52.2146L25.3822 53.6284V53.6284ZM23.2906 31.534C15.2105 33.8105 10.2479 37.2833 10.2479 40.7488C10.2479 44.207 15.2069 47.6834 23.2906 49.9563C24.2802 46.8098 25.4765 43.7321 26.8612 40.7488C25.4665 37.7604 24.2736 34.6819 23.2906 31.534V31.534ZM61.6141 53.6284L61.2154 52.2074C60.1376 48.4958 58.7591 44.8781 57.0937 41.3904L56.7856 40.7488L57.0937 40.0999C58.7612 36.6163 60.1351 32.9949 61.2154 29.2829L61.6141 27.8691L63.046 28.2316C73.6854 30.9178 79.7826 35.4816 79.7826 40.7488C79.7826 46.0123 73.6817 50.5761 63.046 53.2623L61.6141 53.6284V53.6284ZM60.1279 40.7488C61.5779 43.888 62.785 46.9765 63.7057 49.9563C71.7895 47.6834 76.7521 44.207 76.7521 40.7488C76.7521 37.2833 71.7931 33.8141 63.7057 31.534C62.7171 34.681 61.5219 37.7592 60.1279 40.7488V40.7488Z" fill="#EEEEEE"/>
<path d="M23.2689 31.5195L22.8701 30.1057C19.8759 19.5642 20.7821 12.0134 25.3605 9.38162C29.8374 6.78974 37.0402 9.85287 44.5839 17.5922L45.6134 18.6507L44.5839 19.7056C41.9045 22.4921 39.4557 25.4914 37.2614 28.6739L36.8517 29.2611L36.1412 29.3191C32.2827 29.6222 28.4553 30.2392 24.6971 31.1642L23.2689 31.5195V31.5195ZM29.0036 11.4769C28.1916 11.4769 27.4739 11.6545 26.8685 12.0025C23.867 13.7316 23.3377 19.7527 25.404 27.88C28.6339 27.1659 31.8927 26.6547 35.177 26.3684C37.0784 23.6716 39.1526 21.1009 41.3866 18.6725C36.6632 14.0796 32.2045 11.4769 29.0036 11.4769V11.4769ZM57.9927 73.0439C53.6862 73.0439 48.1545 69.7959 42.4125 63.9016L41.3866 62.8467L42.4125 61.7955C45.0922 59.0045 47.5422 56.0017 49.7386 52.8164L50.1446 52.2364L50.8479 52.1675C54.7077 51.8698 58.5365 51.2551 62.2956 50.3296L63.7275 49.9671L64.1299 51.3845C67.1096 61.9187 66.207 69.4805 61.6359 72.1122C60.526 72.7414 59.2684 73.063 57.9927 73.0439V73.0439ZM45.6134 62.8214C50.3331 67.4142 54.7955 70.0206 57.9927 70.0206C58.8084 70.0206 59.5261 69.8394 60.1279 69.495C63.133 67.7622 63.6659 61.7302 61.5924 53.603C58.3661 54.3207 55.1036 54.8355 51.8121 55.1219C49.9188 57.8229 47.848 60.3951 45.6134 62.8214V62.8214Z" fill="#EEEEEE"/>
<path d="M63.7275 31.5195L62.2956 31.1606C58.5367 30.2327 54.7079 29.6156 50.8479 29.3155L50.1446 29.2539L49.7386 28.6666C47.5453 25.4824 45.0951 22.4829 42.4125 19.6984L41.3866 18.6435L42.4125 17.5922C49.9525 9.8565 57.1517 6.79337 61.6359 9.38162C66.2106 12.017 67.1205 19.5679 64.1299 30.1057L63.7275 31.5195ZM51.8121 26.3684C55.2704 26.6765 58.5474 27.1949 61.5924 27.88C63.6622 19.7527 63.133 13.7316 60.1279 11.9989C57.1409 10.2697 51.5185 12.916 45.6134 18.6725C47.8464 21.1012 49.9199 23.6677 51.8121 26.3684ZM29.0036 73.0439C27.7281 73.0621 26.4707 72.7405 25.3605 72.1122C20.7821 69.4805 19.8759 61.9224 22.8665 51.3845L23.258 49.9671L24.6899 50.3296C28.1844 51.2105 32.0341 51.8304 36.1376 52.1675L36.8409 52.2364L37.2505 52.8164C39.44 55.9991 41.8905 59.0043 44.573 61.7955L45.6025 62.8468L44.573 63.9016C38.8346 69.7995 33.3029 73.0439 29.0036 73.0439V73.0439ZM25.404 53.6066C23.3377 61.7339 23.867 67.7659 26.8685 69.4986C29.8591 71.2024 35.4634 68.5743 41.3866 62.8214C39.1534 60.3922 37.0793 57.8216 35.177 55.1255C31.8895 54.8348 28.6247 54.3274 25.404 53.6066V53.6066Z" fill="#EEEEEE"/>
<path d="M43.5 55.5096C41.0096 55.5096 38.454 55.4045 35.8875 55.1906L35.177 55.129L34.7674 54.5417C33.3201 52.4606 31.9584 50.3213 30.6856 48.1291C29.4223 45.931 28.248 43.6829 27.1657 41.3902L26.8612 40.7486L27.1657 40.0997C28.2496 37.8087 29.4205 35.5612 30.6856 33.3645C31.9435 31.204 33.3174 29.0435 34.7674 26.9482L35.177 26.3682L35.8875 26.303C40.9512 25.8788 46.0415 25.8788 51.1052 26.303L51.8085 26.3718L52.2181 26.9518C55.1174 31.1161 57.6637 35.5152 59.8306 40.1033L60.1315 40.7522L59.8306 41.3938C57.6697 45.9851 55.1231 50.3847 52.2181 54.5453L51.8085 55.1326L51.1052 55.1942C48.546 55.4008 45.9867 55.5096 43.5 55.5096V55.5096ZM36.8517 52.2326C41.3286 52.5697 45.6714 52.5697 50.1446 52.2326C52.6418 48.5757 54.8617 44.737 56.7856 40.7486C54.8685 36.7566 52.6483 32.9174 50.1446 29.2646C45.7202 28.9238 41.2761 28.9238 36.8517 29.2646C34.3459 32.916 32.1257 36.7554 30.2107 40.7486C32.1388 44.7348 34.3585 48.5732 36.8517 52.2326V52.2326Z" fill="#EEEEEE"/>
</svg>

<svg xmlns="http://www.w3.org/2000/svg" width="87" height="87" fill="#eee" xmlns:v="https://vecta.io/nano"><path d="M43.5 47.234a6.471 6.471 0 1 0 0-12.941 6.471 6.471 0 1 0 0 12.941zm-18.118 6.394l-1.432-.366C13.315 50.576 7.214 46.009 7.214 40.749s6.104-9.827 16.737-12.514l1.432-.362.402 1.417a70.65 70.65 0 0 0 4.118 10.813l.308.645-.308.645a70.11 70.11 0 0 0-4.118 10.821l-.402 1.414h0zM23.29 31.534c-8.08 2.276-13.043 5.749-13.043 9.215 0 3.458 4.959 6.935 13.043 9.207a76.17 76.17 0 0 1 3.571-9.207c-1.395-2.988-2.588-6.067-3.571-9.215h0zm38.323 22.094l-.399-1.421a71.15 71.15 0 0 0-4.122-10.817l-.308-.642.308-.649a71.01 71.01 0 0 0 4.122-10.817l.399-1.414 1.432.363c10.639 2.686 16.737 7.25 16.737 12.517s-6.101 9.827-16.737 12.514l-1.432.366h0zm-1.486-12.88c1.45 3.139 2.657 6.228 3.578 9.207 8.084-2.273 13.046-5.749 13.046-9.207 0-3.466-4.959-6.935-13.046-9.215a74.98 74.98 0 0 1-3.578 9.215h0z"/><path d="M23.269 31.52l-.399-1.414c-2.994-10.541-2.088-18.092 2.49-20.724 4.477-2.592 11.68.471 19.223 8.211l1.029 1.059-1.029 1.055a71.47 71.47 0 0 0-7.322 8.968l-.41.587-.711.058a71.22 71.22 0 0 0-11.444 1.845l-1.428.355h0zm5.735-20.043c-.812 0-1.53.178-2.135.526-3.001 1.729-3.531 7.75-1.465 15.878a75.7 75.7 0 0 1 9.773-1.512c1.901-2.697 3.976-5.268 6.21-7.696-4.723-4.593-9.182-7.196-12.383-7.196h0zm28.989 61.567c-4.306 0-9.838-3.248-15.58-9.142l-1.026-1.055 1.026-1.051c2.68-2.791 5.13-5.794 7.326-8.979l.406-.58.703-.069c3.86-.298 7.689-.912 11.448-1.838l1.432-.362.402 1.417c2.98 10.534 2.077 18.096-2.494 20.728a7.17 7.17 0 0 1-3.643.932h0zM45.613 62.821c4.72 4.593 9.182 7.199 12.379 7.199.816 0 1.533-.181 2.135-.526 3.005-1.733 3.538-7.765 1.465-15.892-3.226.718-6.489 1.233-9.78 1.519a74.42 74.42 0 0 1-6.199 7.7h0z"/><path d="M63.728 31.52l-1.432-.359a70.6 70.6 0 0 0-11.448-1.845l-.703-.062-.406-.587a70.87 70.87 0 0 0-7.326-8.968l-1.026-1.055 1.026-1.051c7.54-7.736 14.739-10.799 19.223-8.211 4.575 2.635 5.485 10.186 2.494 20.724l-.402 1.414zm-11.915-5.151c3.458.308 6.735.826 9.78 1.512 2.07-8.127 1.541-14.148-1.465-15.881-2.987-1.729-8.609.917-14.514 6.674 2.233 2.429 4.307 4.995 6.199 7.696zM29.004 73.044a7.19 7.19 0 0 1-3.643-.932c-4.578-2.632-5.485-10.19-2.494-20.728l.392-1.417 1.432.362c3.494.881 7.344 1.501 11.448 1.838l.703.069.41.58c2.189 3.183 4.64 6.188 7.322 8.979l1.029 1.051-1.029 1.055c-5.738 5.898-11.27 9.142-15.569 9.142h0zm-3.6-19.437c-2.066 8.127-1.537 14.159 1.465 15.892 2.991 1.704 8.595-.924 14.518-6.677a76.75 76.75 0 0 1-6.21-7.696c-3.287-.291-6.552-.798-9.773-1.519h0z"/><path d="M43.5 55.51a91.95 91.95 0 0 1-7.612-.319l-.711-.062-.41-.587-4.082-6.413-3.52-6.739-.305-.642.305-.649 3.52-6.735 4.082-6.416.41-.58.711-.065c5.064-.424 10.154-.424 15.218 0l.703.069.41.58a91.12 91.12 0 0 1 7.612 13.151l.301.649-.301.642c-2.161 4.591-4.707 8.991-7.612 13.151l-.41.587-.703.062c-2.559.207-5.119.315-7.605.315h0zm-6.648-3.277a87.49 87.49 0 0 0 13.293 0c2.497-3.657 4.717-7.496 6.641-11.484a86.7 86.7 0 0 0-6.641-11.484c-4.424-.341-8.868-.341-13.293 0-2.506 3.651-4.726 7.491-6.641 11.484 1.928 3.986 4.148 7.825 6.641 11.484h0z"/></svg>
